_includes/icons/color-consultation.svg

<svg fill="#666" height="50" viewBox="0 0 48 48" width="50" xmlns="http://www.w3.org/2000/svg"><path d="m23 23.5c0 .828-.672 1.5-1.5 1.5-.829 0-1.5-.672-1.5-1.5s.671-1.5 1.5-1.5c.828 0 1.5.672 1.5 1.5" fill="#ffa726"/><path d="m10 24.5c0 .828-.672 1.5-1.5 1.5s-1.5-.672-1.5-1.5.672-1.5 1.5-1.5 1.5.672 1.5 1.5" fill="#ffa726"/><path d="m19 33s0 4-4 4-4-4-4-4" fill="#ff9800"/><path d="m18.75 33-3.75.77-3.75-.77s-8.25 1.527-8.25 10h24c0-8.441-8.25-10-8.25-10" fill="#4fc3f7"/><path d="m15 37c-4 0-4-4-4-4v-4h8v4s0 4-4 4z" fill="#ff9800"/><path d="m22 20.68c0-5.879-14-3.828-14 0v4.391c0 3.824 3.133 6.929 7 6.929 3.866 0 7-3.105 7-6.93z" fill="#ffb74d"/><path d="m15 39c3.059 0 5.578-2.292 5.948-5.25-.884-.398-1.603-.607-1.954-.693-.031 2.181-1.804 3.943-3.994 3.943s-3.964-1.762-3.994-3.945c-.353.086-1.071.293-1.955.688.366 2.962 2.888 5.257 5.949 5.257z" fill="#01579b"/><path d="m15 13c-4.86 0-8 4.313-8 8.172v1.828l2 2v-4l9.2-3 2.8 3v4l2-2v-.809c0-3.218-.831-6.803-4.8-7.592l-.801-1.599z" fill="#424242"/><path d="m17 24c0-.551.448-1 1-1s1 .449 1 1-.448 1-1 1-1-.449-1-1m-6 0c0 .551.448 1 1 1s1-.449 1-1-.448-1-1-1-1 .449-1 1" fill="#784719"/><path d="m35.5 5c-5.247 0-9.5 3.582-9.5 8 0 2.253 1.11 4.285 2.89 5.739-.008.025-.018.045-.026.07-.585 1.497-1.292 3.234-1.864 4.191 1.993 0 4.594-.977 6.536-2.069.035-.027.065-.059.099-.087.603.101 1.226.156 1.865.156 5.247 0 9.5-3.582 9.5-8s-4.253-8-9.5-8z" fill="#2196f3"/><g fill="#90caf9"><path d="m30 10h11v2h-11z"/><path d="m30 14h7v2h-7z"/><path d="m39 14h2v2h-2z"/></g></svg>

<svg xmlns="http://www.w3.org/2000/svg" viewBox="0 0 48 48" width="50" height="50" fill="#666"><path d="M23,23.5c0,0.828-0.672,1.5-1.5,1.5c-0.829,0-1.5-0.672-1.5-1.5s0.671-1.5,1.5-1.5 C22.328,22,23,22.672,23,23.5" fill="#ffa726"/><path d="M10,24.5c0,0.828-0.672,1.5-1.5,1.5S7,25.328,7,24.5S7.672,23,8.5,23S10,23.672,10,24.5" fill="#ffa726"/><path d="M19,33c0,0,0,4-4,4s-4-4-4-4" fill="#ff9800"/><path d="M18.75,33L18.75,33L15,33.77L11.25,33c0,0-8.25,1.527-8.25,10h24C27,34.559,18.75,33,18.75,33" fill="#4fc3f7"/><path d="M15,37c-4,0-4-4-4-4v-4h8v4C19,33,19,37,15,37z" fill="#ff9800"/><path d="M22,20.68c0-5.879-14-3.828-14,0v4.391C8,28.895,11.133,32,15,32c3.866,0,7-3.105,7-6.93V20.68z" fill="#ffb74d"/><path d="M15,39c3.059,0,5.578-2.292,5.948-5.25c-0.884-0.398-1.603-0.607-1.954-0.693 C18.963,35.238,17.19,37,15,37s-3.964-1.762-3.994-3.945c-0.353,0.086-1.071,0.293-1.955,0.688C9.417,36.705,11.939,39,15,39z" fill="#01579b"/><path d="M15,13c-4.86,0-8,4.313-8,8.172V23l2,2v-4l9.2-3l2.8,3v4l2-2v-0.809c0-3.218-0.831-6.803-4.8-7.592 L17.399,13H15z" fill="#424242"/><path d="M17,24c0-0.551,0.448-1,1-1s1,0.449,1,1s-0.448,1-1,1S17,24.551,17,24 M11,24c0,0.551,0.448,1,1,1 s1-0.449,1-1s-0.448-1-1-1S11,23.449,11,24" fill="#784719"/><path d="M35.5,5C30.253,5,26,8.582,26,13c0,2.253,1.11,4.285,2.89,5.739c-0.008,0.025-0.018,0.045-0.026,0.07 C28.279,20.306,27.572,22.043,27,23c1.993,0,4.594-0.977,6.536-2.069c0.035-0.027,0.065-0.059,0.099-0.087 C34.238,20.945,34.861,21,35.5,21c5.247,0,9.5-3.582,9.5-8S40.747,5,35.5,5z" fill="#2196f3"/><path fill="#90caf9" d="M30 10H41V12H30z"/><path fill="#90caf9" d="M30 14H37V16H30z"/><path fill="#90caf9" d="M39 14H41V16H39z"/></svg>
